images/rpLogoWhite.svg

<svg viewBox="0 0 80 80" fill="none" xmlns="http://www.w3.org/2000/svg"><path d="M33.6 80V8h8v72h-8zM0 64V0h8v64H0zM67.2 8H8V0h59.2v8z" fill="#fff"/><path d="M67.2 35.2H8v-8h59.2v8zM72 64V40h8v24h-8zM72 22.4v-9.6h8v9.6h-8zM72 40c0-2.4-2.4-4.8-4.8-4.8v-8C73.6 27.2 80 32.8 80 40h-8z" fill="#fff"/><path d="M72 12.8c0-2.4-2.4-4.8-4.8-4.8V0C73.6 0 80 5.6 80 12.8h-8zM67.2 27.2c2.4 0 4.8-2.4 4.8-4.8h8c0 6.4-5.6 12.8-12.8 12.8v-8z" fill="#fff"/></svg>

<svg viewBox="0 0 80 80" fill="none" xmlns="http://www.w3.org/2000/svg">
    <path d="M33.6001 80V8H41.6001V80H33.6001Z" fill="white"/>
    <path d="M0 64V0H8V64H0Z" fill="white"/>
    <path d="M67.2 8L8 8L8 0L67.2 0V8Z" fill="white"/>
    <path d="M67.2 35.2L8 35.2L8 27.2L67.2 27.2V35.2Z" fill="white"/>
    <path d="M72 64V40H80V64H72Z" fill="white"/>
    <path d="M72 22.4V12.8H80V22.4H72Z" fill="white"/>
    <path d="M72 40C72 37.6 69.6 35.2 67.2 35.2V27.2C73.6 27.2 80 32.8 80 40H72Z" fill="white"/>
    <path d="M72 12.8C72 10.4 69.6 8 67.2 8V0C73.6 0 80 5.6 80 12.8H72Z" fill="white"/>
    <path d="M67.2 27.2C69.6 27.2 72 24.8 72 22.4H80C80 28.8 74.4 35.2 67.2 35.2V27.2Z" fill="white"/>
</svg>
